img/wires11-3.svg

<svg fill="none" height="34" viewBox="0 0 142 34" width="142" xmlns="http://www.w3.org/2000/svg"><path d="m141.474.645015h-19.077c-4.644 0-9.016 2.189915-11.797 5.909035l-15.7939 21.12095c-2.781 3.7191-7.153 5.909-11.7969 5.909h-42.1594c-6.6844 0-13.1429-2.4189-18.1827-6.8099l-7.1585-6.2371c-5.2382-4.5639-2.0104-13.18216 4.9371-13.18216 7.0203 0 10.2076 8.77036 4.8254 13.27766l-8.2385 6.8993c-4.6687 3.9097-10.56414 6.0522-16.653692 6.0522" stroke="#fff500" stroke-linecap="round" stroke-linejoin="round" stroke-width=".736523"/></svg>

<svg width="142" height="34" viewBox="0 0 142 34" fill="none" xmlns="http://www.w3.org/2000/svg">
<path d="M141.474 0.645015L122.397 0.645015C117.753 0.645015 113.381 2.83493 110.6 6.55405L94.8061 27.675C92.0251 31.3941 87.6531 33.584 83.0092 33.584L40.8498 33.584C34.1654 33.584 27.7069 31.1651 22.6671 26.7741L15.5086 20.537C10.2704 15.9731 13.4982 7.35484 20.4457 7.35484V7.35484C27.466 7.35484 30.6533 16.1252 25.2711 20.6325L17.0326 27.5318C12.3639 31.4415 6.46846 33.584 0.378908 33.584V33.584" stroke="#FFF500" stroke-width="0.736523" stroke-linecap="round" stroke-linejoin="round"/>
</svg>
